X: 06094
T: TOM SHERRY'S REEL
C: Bob McQuillen 10 June 82
B: Bob's Note Book 6 #94
%R: reel
Z: 2021 John Chambers <jc:trillian.mit.edu>
M: C
L: 1/8
K: A
AF \
| EFAc B2Ac | ecBc A2ef | afea feaf | ecAc B2AF |\
| EFAc BAcf | ecBA c2Ac | ecaf ecfe | c2A2 A2 :|
|: ef \
| a2ae fecB | cffe f2fg | agfg fecB | c2f2 fgaf |\
| ecef afef | ecBA FEcB | Acea fecA | B2A2 A2 :|
%%begintext align
%% Tom is 1/2 of
%% a husband-wife team of fiddlers in Lyme,
%% N.H., who play such great music for the
%% Contra dances so popular in that area.
%%endtext

%%sep 1 1 500

%%sep 1 1 500

